frontend/public/svg/interface/eject.svg

<svg width="129" height="105" viewBox="0 0 129 105" fill="none" xmlns="http://www.w3.org/2000/svg">
<g clip-path="url(#clip0)">
<path d="M67.945 60.297C51.0292 60.4965 34.1133 60.7037 17.1975 60.9186C14.9996 60.9499 12.8075 61.3678 10.6037 61.4833C8.84024 61.6036 7.06981 61.5862 5.30893 61.4312C3.69794 61.2629 2.34694 60.4529 1.91058 58.6992C1.49361 57.0238 2.07431 55.6842 3.31746 54.5103C6.45798 51.5429 9.60223 48.5755 12.6432 45.5057C26.5583 31.4579 40.8291 17.7988 56.021 5.15312C57.2151 4.15986 58.4258 3.18677 59.6328 2.20982C62.4733 -0.0890941 65.4677 -0.330374 68.5093 1.71289C70.4532 2.98984 72.3202 4.38069 74.1025 5.8783C82.6035 13.1787 91.1485 20.4329 99.4911 27.9146C106.841 34.5068 113.995 41.3259 121.122 48.1639C122.884 49.8428 124.387 51.7771 125.583 53.9031C127.42 57.2253 126.318 59.431 122.62 60.3029C121.108 60.6169 119.565 60.7465 118.022 60.689C101.329 60.4716 84.6367 60.2324 67.945 59.9715V60.297ZM113.099 52.3157C112.888 51.9706 112.657 51.6393 112.406 51.3237C98.5712 36.6974 83.4924 23.4348 68.3257 10.2668C67.6573 9.68567 66.8854 9.22328 66.2241 8.63632C65.0067 7.55436 63.924 7.68943 62.7054 8.70551C60.4059 10.6229 57.9171 12.3199 55.6991 14.324C42.856 25.9301 30.0527 37.5786 17.2893 49.2694C15.604 50.8131 14.2076 52.6783 12.6309 54.4464L113.099 52.3157Z" fill="black"/>
<path d="M64.2931 74.2638C83.4285 74.4627 102.564 74.6694 121.699 74.884C123.017 74.9036 124.326 75.1103 125.586 75.499C126.394 75.7449 127.102 76.2444 127.608 76.9246C128.115 77.6055 128.392 78.4312 128.4 79.2816C128.529 81.2023 127.724 82.9083 125.904 83.6146C124.372 84.2244 122.74 84.5394 121.093 84.5447C110.365 84.3947 99.6379 84.1683 88.9124 83.8651C69.1216 83.3238 49.3314 82.7499 29.5418 82.1433C22.5774 81.9386 15.6125 81.7462 8.65073 81.4657C7.21553 81.4057 5.79557 81.1423 4.43293 80.6831C2.11407 79.9005 0.92993 77.8136 1.39474 75.7697C1.85437 73.7479 3.38334 72.6523 5.91684 72.7436C10.3367 72.9033 14.7514 73.2888 19.1694 73.3553C34.2106 73.5816 49.2537 73.7101 64.2963 73.877L64.2931 74.2638Z" fill="black"/>
<path d="M66.1129 93.0323C82.6346 93.6115 101.524 94.2525 120.41 94.9706C122.166 95.0352 123.902 95.373 125.556 95.971C126.458 96.2828 127.23 96.8938 127.744 97.7051C128.258 98.5165 128.483 99.4797 128.384 100.437C128.327 101.34 127.983 102.201 127.402 102.891C126.82 103.579 126.032 104.059 125.157 104.259C123.562 104.67 121.918 104.854 120.273 104.807C111.777 104.374 103.29 103.769 94.7959 103.311C83.431 102.699 72.0655 102.064 60.6927 101.63C50.5335 101.243 40.366 101.069 30.2003 100.889C23.9044 100.778 17.6051 100.868 11.3086 100.785C9.53972 100.747 7.77726 100.559 6.03933 100.224C4.98301 100.029 3.71209 99.7308 3.04817 99.0043C2.66867 98.5712 2.37845 98.0665 2.19463 97.5193C2.01082 96.9715 1.93694 96.3923 1.97747 95.8158C2.10676 94.9784 3.24579 94.1508 4.12046 93.6362C4.71585 93.2854 5.62732 93.4536 6.39855 93.4406C13.9079 93.2991 21.4167 93.093 28.926 93.0493C40.5307 92.9841 52.136 93.0323 66.1129 93.0323Z" fill="black"/>
</g>
<defs>
<clipPath id="clip0">
<rect width="128" height="105" fill="white" transform="translate(0.777344)"/>
</clipPath>
</defs>
</svg>

<svg xmlns="http://www.w3.org/2000/svg" width="129" height="105" fill="none" viewBox="0 0 129 105"><g fill="#000" clip-path="url(#a)"><path d="M67.945 60.297q-25.374.3-50.747.622c-2.198.03-4.39.449-6.594.564-1.764.12-3.534.103-5.295-.052-1.611-.168-2.962-.978-3.398-2.732-.417-1.675.163-3.015 1.406-4.189 3.141-2.967 6.285-5.934 9.326-9.004C26.558 31.458 40.83 17.799 56.021 5.153c1.194-.993 2.405-1.966 3.612-2.943 2.84-2.3 5.835-2.54 8.876-.497a59 59 0 0 1 5.594 4.165c8.5 7.3 17.046 14.555 25.388 22.037 7.35 6.592 14.504 13.41 21.631 20.249a24.6 24.6 0 0 1 4.461 5.74c1.837 3.321.735 5.527-2.963 6.399a19 19 0 0 1-4.598.386q-25.04-.326-50.077-.718zm45.154-7.981a10 10 0 0 0-.693-.992c-13.835-14.627-28.914-27.89-44.08-41.057-.669-.581-1.44-1.044-2.102-1.63-1.217-1.083-2.3-.948-3.519.069-2.3 1.917-4.788 3.614-7.006 5.618a7730 7730 0 0 0-38.41 34.945c-1.685 1.544-3.081 3.41-4.658 5.177zM64.293 74.264q28.703.298 57.406.62a13.9 13.9 0 0 1 3.887.615 3.96 3.96 0 0 1 2.022 1.426 4 4 0 0 1 .792 2.357c.129 1.92-.676 3.626-2.496 4.333-1.532.61-3.164.924-4.811.93q-16.092-.225-32.18-.68-29.687-.811-59.371-1.722c-6.965-.204-13.93-.397-20.891-.677a15.2 15.2 0 0 1-4.218-.783C2.114 79.9.93 77.813 1.395 75.77c.46-2.022 1.988-3.118 4.522-3.026 4.42.16 8.834.545 13.252.611 15.042.227 30.085.355 45.127.522zm1.82 18.768c16.522.58 35.411 1.22 54.297 1.939a17 17 0 0 1 5.146 1 4.23 4.23 0 0 1 2.188 1.734c.514.811.739 1.775.64 2.732a4.22 4.22 0 0 1-.982 2.454 4.15 4.15 0 0 1-2.245 1.368 17.6 17.6 0 0 1-4.884.548c-8.496-.433-16.983-1.038-25.477-1.496-11.365-.612-22.73-1.247-34.103-1.681-10.16-.387-20.327-.561-30.493-.741-6.296-.111-12.595-.021-18.891-.104a31.4 31.4 0 0 1-5.27-.561c-1.056-.195-2.327-.493-2.99-1.22a4.36 4.36 0 0 1-1.072-3.188c.13-.838 1.269-1.665 2.143-2.18.596-.35 1.507-.182 2.279-.195 7.509-.142 15.018-.348 22.527-.392 11.605-.065 23.21-.017 37.187-.017"/></g><defs><clipPath id="a"><path fill="#fff" d="M.777 0h128v105h-128z"/></clipPath></defs></svg>
